data/styles/clear/style-clear/symbols/marketplace-m.svg

<svg height="24" viewBox="0 0 24 24" width="24"><g fill="none" fill-rule="evenodd"><circle cx="12" cy="12" fill="#fff" opacity=".6" r="12"/><circle cx="12" cy="12" fill="#8c5f93" r="11"/><path d="m6 5v2.02253333c0 .94453334.89454545 1.7108 2.00072727 1.7108 1.104 0 1.99854546-.76626666 1.99854546-1.7108 0 .94453334.89563637 1.7108 2.00072727 1.7108s2.0007273-.76626666 2.0007273-1.7108c0 .94453334.8945454 1.7108 1.9985454 1.7108 1.1061818 0 2.0007273-.76626666 2.0007273-1.7108v-2.02253333zm10.9090909 4.66666667h-2.1818182v2.80000003h-5.45454543v-2.80000003h-2.18181818v2.80000003h-1.09090909v1.8666666h12v-1.8666666h-1.0909091zm-9.81818181 9.33333333h9.81818181v-3.7333333h-9.81818181z" fill="#fff"/></g></svg>

<svg width="24" height="24" viewBox="0 0 24 24">
  <g fill="none" fill-rule="evenodd">
    <circle cx="12" cy="12" r="12" fill="#FFF" opacity=".6"/>
    <circle cx="12" cy="12" r="11" fill="#8C5F93"/>
    <path fill="#FFF" d="M6,5 L6,7.02253333 C6,7.96706667 6.89454545,8.73333333 8.00072727,8.73333333 C9.10472727,8.73333333 9.99927273,7.96706667 9.99927273,7.02253333 C9.99927273,7.96706667 10.8949091,8.73333333 12,8.73333333 C13.1050909,8.73333333 14.0007273,7.96706667 14.0007273,7.02253333 C14.0007273,7.96706667 14.8952727,8.73333333 15.9992727,8.73333333 C17.1054545,8.73333333 18,7.96706667 18,7.02253333 L18,5 L6,5 L6,5 Z M16.9090909,9.66666667 L14.7272727,9.66666667 L14.7272727,12.4666667 L9.27272727,12.4666667 L9.27272727,9.66666667 L7.09090909,9.66666667 L7.09090909,12.4666667 L6,12.4666667 L6,14.3333333 L18,14.3333333 L18,12.4666667 L16.9090909,12.4666667 L16.9090909,9.66666667 L16.9090909,9.66666667 Z M7.09090909,19 L16.9090909,19 L16.9090909,15.2666667 L7.09090909,15.2666667 L7.09090909,19 L7.09090909,19 Z"/>
  </g>
</svg>
